X:100
T:Bean A Ti Ar Lar
M:4/4
L:1/8
S:Roaring Mary
R:reel
Z:Barney
K:D
dB|AG FE D2 FD|GD FE Dd cd|
AG FE D2 FD|E2 =cA BG EG|
AG FE D2 FD|GD FE Dd cd|
AG FE D2 FD|E2 =cA BG Ed||
cd ec A3 d|cd ec AG Ed|cd ec A3 F|GE =cA BG Ed|
cd ec A3 d|cd ec AG Ed|cd eg f2 ec|AB cA Bd cB||
AG FE D2 FD|GD FE Dd cd|
AG FE D2 FD|E2 =cA BG EG|
AG FE D2 FD|GD FE Dd cd|
AG FE D2 FD|E2 =cA BG Ed|
cd ec A3 d|cd ec AG Ed|cd ec A3 F|GE =cA BG Ed|
cd ec A3 d|cd ec AG Ed|cd eg f2 ec|AB cA Bd cB||

